aces_1.2.0_with_LogCv4/luts/V4_LogC_to_linear.spi1d
Version 1
From 0 1
Length 4096
Components 1
{
 -1.8056996167e-02
 -1.8029218540e-02
 -1.8001370132e-02
 -1.7973447219e-02
 -1.7945451662e-02
 -1.7917383462e-02
 -1.7889242619e-02
 -1.7861027271e-02
 -1.7832737416e-02
 -1.7804373056e-02
 -1.7775936052e-02
 -1.7747424543e-02
 -1.7718838528e-02
 -1.7690176144e-02
 -1.7661441118e-02
 -1.7632629722e-02
 -1.7603741959e-02
 -1.7574779689e-02
 -1.7545741051e-02
 -1.7516627908e-02
 -1.7487438396e-02
 -1.7458170652e-02
 -1.7428828403e-02
 -1.7399407923e-02
 -1.7369911075e-02
 -1.7340337858e-02
 -1.7310686409e-02
 -1.7280956730e-02
 -1.7251150683e-02
 -1.7221266404e-02
 -1.7191303894e-02
 -1.7161261290e-02
 -1.7131142318e-02
 -1.7100943252e-02
 -1.7070665956e-02
 -1.7040308565e-02
 -1.7009872943e-02
 -1.6979357228e-02
 -1.6948761418e-02
 -1.6918087378e-02
 -1.6887331381e-02
 -1.6856493428e-02
 -1.6825577244e-02
 -1.6794579104e-02
 -1.6763500869e-02
 -1.6732340679e-02
 -1.6701098531e-02
 -1.6669776291e-02
 -1.6638370231e-02
 -1.6606882215e-02
 -1.6575312242e-02
 -1.6543660313e-02
 -1.6511924565e-02
 -1.6480106860e-02
 -1.6448205337e-02
 -1.6416219994e-02
 -1.6384152696e-02
 -1.6351999715e-02
 -1.6319762915e-02
 -1.6287442297e-02
 -1.6255035996e-02
 -1.6222545877e-02
 -1.6189971939e-02
 -1.6157310456e-02
 -1.6124565154e-02
 -1.6091734171e-02
 -1.6058815643e-02
 -1.6025813296e-02
 -1.5992723405e-02
 -1.5959545970e-02
 -1.5926282853e-02
 -1.5892934054e-02
 -1.5859495848e-02
 -1.5825971961e-02
 -1.5792358667e-02
 -1.5758657828e-02
 -1.5724869445e-02
 -1.5690993518e-02
 -1.5657026321e-02
 -1.5622972511e-02
 -1.5588829294e-02
 -1.5554596670e-02
 -1.5520273708e-02
 -1.5485862270e-02
 -1.5451359563e-02
 -1.5416767448e-02
 -1.5382084064e-02
 -1.5347311273e-02
 -1.5312446281e-02
 -1.5277490951e-02
 -1.5242443420e-02
 -1.5207304619e-02
 -1.5172073618e-02
 -1.5136750415e-02
 -1.5101335011e-02
 -1.5065827407e-02
 -1.5030226670e-02
 -1.4994532801e-02
 -1.4958744869e-02
 -1.4922864735e-02
 -1.4886889607e-02
 -1.4850820415e-02
 -1.4814657159e-02
 -1.4778399840e-02
 -1.4742046595e-02
 -1.4705599286e-02
 -1.4669056050e-02
 -1.4632416889e-02
 -1.4595682733e-02
 -1.4558851719e-02
 -1.4521924779e-02
 -1.4484901913e-02
 -1.4447781257e-02
 -1.4410563745e-02
 -1.4373248443e-02
 -1.4335836284e-02
 -1.4298326336e-02
 -1.4260717668e-02
 -1.4223011211e-02
 -1.4185205102e-02
 -1.4147301205e-02
 -1.4109297656e-02
 -1.4071194455e-02
 -1.4032992534e-02
 -1.3994690031e-02
 -1.3956286944e-02
 -1.3917784207e-02
 -1.3879179955e-02
 -1.3840475120e-02
 -1.3801668771e-02
 -1.3762761839e-02
 -1.3723752461e-02
 -1.3684640639e-02
 -1.3645427302e-02
 -1.3606110588e-02
 -1.3566691428e-02
 -1.3527169824e-02
 -1.3487543911e-02
 -1.3447814621e-02
 -1.3407981955e-02
 -1.3368044049e-02
 -1.3328002766e-02
 -1.3287856244e-02
 -1.3247604482e-02
 -1.3207247481e-02
 -1.3166785240e-02
 -1.3126216829e-02
 -1.3085542247e-02
 -1.3044761494e-02
 -1.3003874570e-02
 -1.2962879613e-02
 -1.2921778485e-02
 -1.2880569324e-02
 -1.2839252129e-02
 -1.2797826901e-02
 -1.2756293640e-02
 -1.2714652345e-02
 -1.2672901154e-02
 -1.2631040998e-02
 -1.2589070946e-02
 -1.2546991929e-02
 -1.2504802085e-02
 -1.2462502345e-02
 -1.2420091778e-02
 -1.2377570383e-02
 -1.2334938161e-02
 -1.2292194180e-02
 -1.2249337509e-02
 -1.2206370011e-02
 -1.2163289823e-02
 -1.2120096013e-02
 -1.2076790445e-02
 -1.2033370323e-02
 -1.1989837512e-02
 -1.1946191080e-02
 -1.1902430095e-02
 -1.1858554557e-02
 -1.1814564466e-02
 -1.1770458892e-02
 -1.1726237833e-02
 -1.1681902222e-02
 -1.1637449265e-02
 -1.1592880823e-02
 -1.1548195966e-02
 -1.1503393762e-02
 -1.1458474211e-02
 -1.1413437314e-02
 -1.1368283071e-02
 -1.1323010549e-02
 -1.1277619749e-02
 -1.1232109740e-02
 -1.1186480522e-02
 -1.1140732095e-02
 -1.1094864458e-02
 -1.1048876680e-02
 -1.1002768762e-02
 -1.0956539772e-02
 -1.0910189711e-02
 -1.0863719508e-02
 -1.0817126371e-02
 -1.0770412162e-02
 -1.0723575950e-02
 -1.0676616803e-02
 -1.0629534721e-02
 -1.0582329705e-02
 -1.0535001755e-02
 -1.0487549007e-02
 -1.0439972393e-02
 -1.0392271914e-02
 -1.0344445705e-02
 -1.0296495631e-02
 -1.0248418897e-02
 -1.0200217366e-02
 -1.0151889175e-02
 -1.0103434324e-02
 -1.0054853745e-02
 -1.0006145574e-02
 -9.9573098123e-03
 -9.9083464593e-03
 -9.8592545837e-03
 -9.8100351170e-03
 -9.7606861964e-03
 -9.7112087533e-03
 -9.6616009250e-03
 -9.6118645743e-03
 -9.5619978383e-03
 -9.5119997859e-03
 -9.4618713483e-03
 -9.4116125256e-03
 -9.3612214550e-03
 -9.3106990680e-03
 -9.2600444332e-03
 -9.2092566192e-03
 -9.1583365574e-03
 -9.1072833166e-03
 -9.0560968965e-03
 -9.0047763661e-03
 -8.9533207938e-03
 -8.9017311111e-03
 -8.8500063866e-03
 -8.7981466204e-03
 -8.7461518124e-03
 -8.6940200999e-03
 -8.6417524144e-03
 -8.5893478245e-03
 -8.5368063301e-03
 -8.4841270000e-03
 -8.4313098341e-03
 -8.3783548325e-03
 -8.3252610639e-03
 -8.2720294595e-03
 -8.2186572254e-03
 -8.1651462242e-03
 -8.1114945933e-03
 -8.0577032641e-03
 -8.0037713051e-03
 -7.9496977851e-03
 -7.8954827040e-03
 -7.8411260620e-03
 -7.7866273932e-03
 -7.7319862321e-03
 -7.6772016473e-03
 -7.6222741045e-03
 -7.5672031380e-03
 -7.5119878165e-03
 -7.4566281401e-03
 -7.4011231773e-03
 -7.3454738595e-03
 -7.2896783240e-03
 -7.2337370366e-03
 -7.1776495315e-03
 -7.1214153431e-03
 -7.0650340058e-03
 -7.0085050538e-03
 -6.9518284872e-03
 -6.8950033747e-03
 -6.8380297162e-03
 -6.7809070460e-03
 -6.7236348987e-03
 -6.6662132740e-03
 -6.6086412407e-03
 -6.5509183332e-03
 -6.4930450171e-03
 -6.4350198954e-03
 -6.3768429682e-03
 -6.3185142353e-03
 -6.2600322999e-03
 -6.2013980933e-03
 -6.1426102184e-03
 -6.0836682096e-03
 -6.0245725326e-03
 -5.9653222561e-03
 -5.9059169143e-03
 -5.8463560417e-03
 -5.7866391726e-03
 -5.7267663069e-03
 -5.6667369790e-03
 -5.6065507233e-03
 -5.5462066084e-03
 -5.4857051000e-03
 -5.4250452667e-03
 -5.3642266430e-03
 -5.3032487631e-03
 -5.2421116270e-03
 -5.1808143035e-03
 -5.1193567924e-03
 -5.0577386282e-03
 -4.9959593453e-03
 -4.9340184778e-03
 -4.8719150946e-03
 -4.8096496612e-03
 -4.7472212464e-03
 -4.6846298501e-03
 -4.6218745410e-03
 -4.5589548536e-03
 -4.4958707877e-03
 -4.4326218776e-03
 -4.3692071922e-03
 -4.3056267314e-03
 -4.2418800294e-03
 -4.1779666208e-03
 -4.1138855740e-03
 -4.0496373549e-03
 -3.9852210321e-03
 -3.9206361398e-03
 -3.8558824454e-03
 -3.7909594830e-03
 -3.7258663215e-03
 -3.6606031936e-03
 -3.5951691680e-03
 -3.5295640118e-03
 -3.4637872595e-03
 -3.3978386782e-03
 -3.3317173366e-03
 -3.2654230017e-03
 -3.1989554409e-03
 -3.1323139556e-03
 -3.0654980801e-03
 -2.9985075817e-03
 -2.9313417617e-03
 -2.8640001547e-03
 -2.7964825276e-03
 -2.7287881821e-03
 -2.6609168854e-03
 -2.5928679388e-03
 -2.5246411096e-03
 -2.4562356994e-03
 -2.3876514751e-03
 -2.3188877385e-03
 -2.2499442566e-03
 -2.1808203310e-03
 -2.1115157288e-03
 -2.0420297515e-03
 -1.9723621663e-03
 -1.9025120419e-03
 -1.8324793782e-03
 -1.7622635933e-03
 -1.6918641049e-03
 -1.6212804476e-03
 -1.5505120391e-03
 -1.4795586467e-03
 -1.4084196882e-03
 -1.3370945817e-03
 -1.2655829778e-03
 -1.1938842945e-03
 -1.1219979497e-03
 -1.0499237105e-03
 -9.7766087856e-04
 -9.0520904632e-04
 -8.3256768994e-04
 -7.5973634375e-04
 -6.8671448389e-04
 -6.1350158649e-04
 -5.4009718588e-04
 -4.6650081640e-04
 -3.9271189598e-04
 -3.1872998807e-04
 -2.4455456878e-04
 -1.7018511426e-04
 -9.5621122455e-05
 -2.0862100428e-05
 5.4092473874e-05
 1.2924311159e-04
 2.0459032385e-04
 2.8013461269e-04
 3.5587651655e-04
 4.3181655928e-04
 5.0795520656e-04
 5.8429304045e-04
 6.6083052661e-04
 7.3756824713e-04
 8.1450666767e-04
 8.9164637029e-04
 9.6898782067e-04
 1.0465316009e-03
 1.1242781766e-03
 1.2022281298e-03
 1.2803820428e-03
 1.3587402645e-03
 1.4373036101e-03
 1.5160723124e-03
 1.5950470697e-03
 1.6742284643e-03
 1.7536169617e-03
 1.8332131440e-03
 1.9130174769e-03
 1.9930305425e-03
 2.0732530393e-03
 2.1536853164e-03
 2.2343278397e-03
 2.3151813075e-03
 2.3962464184e-03
 2.4775236379e-03
 2.5590131991e-03
 2.6407160331e-03
 2.7226326056e-03
 2.8047636151e-03
 2.8871092945e-03
 2.9696703423e-03
 3.0524472240e-03
 3.1354408711e-03
 3.2186515164e-03
 3.3020798583e-03
 3.3857263625e-03
 3.4695917275e-03
 3.5536764190e-03
 3.6379809026e-03
 3.7225061096e-03
 3.8072525058e-03
 3.8922203239e-03
 3.9774104953e-03
 4.0628234856e-03
 4.1484599933e-03
 4.2343204841e-03
 4.3204054236e-03
 4.4067157432e-03
 4.4932514429e-03
 4.5800139196e-03
 4.6670031734e-03
 4.7542201355e-03
 4.8416648060e-03
 4.9293385819e-03
 5.0172414631e-03
 5.1053748466e-03
 5.1937382668e-03
 5.2823326550e-03
 5.3711589426e-03
 5.4602175951e-03
 5.5495095439e-03
 5.6390347891e-03
 5.7287942618e-03
 5.8187884279e-03
 5.9090177529e-03
 5.9994836338e-03
 6.0901856050e-03
 6.1811250634e-03
 6.2723024748e-03
 6.3637183048e-03
 6.4553734846e-03
 6.5472680144e-03
 6.6394032910e-03
 6.7317793146e-03
 6.8243970163e-03
 6.9172568619e-03
 7.0103597827e-03
 7.1037062444e-03
 7.1972967125e-03
 7.2911321186e-03
 7.3852133937e-03
 7.4795400724e-03
 7.5741140172e-03
 7.6689347625e-03
 7.7640037052e-03
 7.8593213111e-03
 7.9548889771e-03
 8.0507062376e-03
 8.1467730924e-03
 8.2430923358e-03
 8.3396630362e-03
 8.4364870563e-03
 8.5335634649e-03
 8.6308941245e-03
 8.7284799665e-03
 8.8263200596e-03
 8.9244171977e-03
 9.0227704495e-03
 9.1213807464e-03
 9.2202490196e-03
 9.3193752691e-03
 9.4187622890e-03
 9.5184082165e-03
 9.6183149144e-03
 9.7184833139e-03
 9.8189134151e-03
 9.9196061492e-03
 1.0020562448e-02
 1.0121782310e-02
 1.0223267600e-02
 1.0325018317e-02
 1.0427035391e-02
 1.0529318824e-02
 1.0631869547e-02
 1.0734689422e-02
 1.0837777518e-02
 1.0941135697e-02
 1.1044763960e-02
 1.1148663238e-02
 1.1252834462e-02
 1.1357277632e-02
 1.1461994611e-02
 1.1566985399e-02
 1.1672250926e-02
 1.1777791195e-02
 1.1883608066e-02
 1.1989701539e-02
 1.2096072547e-02
 1.2202722020e-02
 1.2309650891e-02
 1.2416858226e-02
 1.2524346821e-02
 1.2632116675e-02
 1.2740167789e-02
 1.2848502025e-02
 1.2957119383e-02
 1.3066021726e-02
 1.3175208122e-02
 1.3284679502e-02
 1.3394438662e-02
 1.3504483737e-02
 1.3614817522e-02
 1.3725439087e-02
 1.3836350292e-02
 1.3947552070e-02
 1.4059044421e-02
 1.4170828275e-02
 1.4282904565e-02
 1.4395274222e-02
 1.4507937245e-02
 1.4620895498e-02
 1.4734148979e-02
 1.4847698621e-02
 1.4961546287e-02
 1.5075690113e-02
 1.5190133825e-02
 1.5304876491e-02
 1.5419919044e-02
 1.5535262413e-02
 1.5650907531e-02
 1.5766855329e-02
 1.5883106738e-02
 1.5999661759e-02
 1.6116522253e-02
 1.6233688220e-02
 1.6351159662e-02
 1.6468940303e-02
 1.6587028280e-02
 1.6705423594e-02
 1.6824129969e-02
 1.6943147406e-02
 1.7062475905e-02
 1.7182115465e-02
 1.7302067950e-02
 1.7422335222e-02
 1.7542917281e-02
 1.7663814127e-02
 1.7785025761e-02
 1.7906555906e-02
 1.8028404564e-02
 1.8150571734e-02
 1.8273057416e-02
 1.8395865336e-02
 1.8518991768e-02
 1.8642442301e-02
 1.8766215071e-02
 1.8890311942e-02
 1.9014732912e-02
 1.9139479846e-02
 1.9264552742e-02
 1.9389953464e-02
 1.9515682012e-02
 1.9641738385e-02
 1.9768126309e-02
 1.9894843921e-02
 2.0021891221e-02
 2.0149273798e-02
 2.0276987925e-02
 2.0405035466e-02
 2.0533420146e-02
 2.0662138239e-02
 2.0791195333e-02
 2.0920587704e-02
 2.1050320938e-02
 2.1180391312e-02
 2.1310802549e-02
 2.1441556513e-02
 2.1572649479e-02
 2.1704088897e-02
 2.1835869178e-02
 2.1967995912e-02
 2.2100467235e-02
 2.2233285010e-02
 2.2366451100e-02
 2.2499965504e-02
 2.2633828223e-02
 2.2768041119e-02
 2.2902606055e-02
 2.3037523031e-02
 2.3172792047e-02
 2.3308414966e-02
 2.3444393650e-02
 2.3580726236e-02
 2.3717416450e-02
 2.3854464293e-02
 2.3991869763e-02
 2.4129636586e-02
 2.4267762899e-02
 2.4406248704e-02
 2.4545099586e-02
 2.4684311822e-02
 2.4823889136e-02
 2.4963831529e-02
 2.5104139000e-02
 2.5244813412e-02
 2.5385856628e-02
 2.5527268648e-02
 2.5669051334e-02
 2.5811202824e-02
 2.5953728706e-02
 2.6096625254e-02
 2.6239896193e-02
 2.6383541524e-02
 2.6527563110e-02
 2.6671962813e-02
 2.6816738769e-02
 2.6961892843e-02
 2.7107426897e-02
 2.7253342792e-02
 2.7399640530e-02
 2.7546318248e-02
 2.7693381533e-02
 2.7840830386e-02
 2.7988662943e-02
 2.8136884794e-02
 2.8285492212e-02
 2.8434488922e-02
 2.8583874926e-02
 2.8733652085e-02
 2.8883820400e-02
 2.9034381732e-02
 2.9185337946e-02
 2.9336689040e-02
 2.9488435015e-02
 2.9640577734e-02
 2.9793119058e-02
 2.9946058989e-02
 3.0099399388e-02
 3.0253140256e-02
 3.0407285318e-02
 3.0561830848e-02
 3.0716782436e-02
 3.0872138217e-02
 3.1027901918e-02
 3.1184071675e-02
 3.1340651214e-02
 3.1497638673e-02
 3.1655035913e-02
 3.1812846661e-02
 3.1971070915e-02
 3.2129708678e-02
 3.2288759947e-02
 3.2448228449e-02
 3.2608114183e-02
 3.2768417150e-02
 3.2929141074e-02
 3.3090282232e-02
 3.3251848072e-02
 3.3413834870e-02
 3.3576246351e-02
 3.3739082515e-02
 3.3902343363e-02
 3.4066032618e-02
 3.4230150282e-02
 3.4394696355e-02
 3.4559670836e-02
 3.4725081176e-02
 3.4890923649e-02
 3.5057198256e-02
 3.5223904997e-02
 3.5391051322e-02
 3.5558633506e-02
 3.5726655275e-02
 3.5895116627e-02
 3.6064017564e-02
 3.6233361810e-02
 3.6403149366e-02
 3.6573376507e-02
 3.6744054407e-02
 3.6915175617e-02
 3.7086743861e-02
 3.7258762866e-02
 3.7431232631e-02
 3.7604153156e-02
 3.7777524441e-02
 3.7951350212e-02
 3.8125630468e-02
 3.8300365210e-02
 3.8475558162e-02
 3.8651209325e-02
 3.8827318698e-02
 3.9003890008e-02
 3.9180923253e-02
 3.9358422160e-02
 3.9536383003e-02
 3.9714805782e-02
 3.9893701673e-02
 4.0073059499e-02
 4.0252890438e-02
 4.0433190763e-02
 4.0613964200e-02
 4.0795207024e-02
 4.0976926684e-02
 4.1159119457e-02
 4.1341792792e-02
 4.1524939239e-02
 4.1708566248e-02
 4.1892673820e-02
 4.2077265680e-02
 4.2262338102e-02
 4.2447894812e-02
 4.2633935809e-02
 4.2820464820e-02
 4.3007481843e-02
 4.3194986880e-02
 4.3382979929e-02
 4.3571468443e-02
 4.3760448694e-02
 4.3949924409e-02
 4.4139895588e-02
 4.4330362231e-02
 4.4521328062e-02
 4.4712796807e-02
 4.4904761016e-02
 4.5097228140e-02
 4.5290201902e-02
 4.5483678579e-02
 4.5677661896e-02
 4.5872151852e-02
 4.6067148447e-02
 4.6262659132e-02
 4.6458680183e-02
 4.6655211598e-02
 4.6852257103e-02
 4.7049820423e-02
 4.7247901559e-02
 4.7446496785e-02
 4.7645613551e-02
 4.7845251858e-02
 4.8045411706e-02
 4.8246096820e-02
 4.8447303474e-02
 4.8649039119e-02
 4.8851300031e-02
 4.9054093659e-02
 4.9257416278e-02
 4.9461267889e-02
 4.9665655941e-02
 4.9870576710e-02
 5.0076033920e-02
 5.0282031298e-02
 5.0488565117e-02
 5.0695639104e-02
 5.0903253257e-02
 5.1111411303e-02
 5.1320116967e-02
 5.1529366523e-02
 5.1739159971e-02
 5.1949504763e-02
 5.2160400897e-02
 5.2371848375e-02
 5.2583850920e-02
 5.2796404809e-02
 5.3009513766e-02
 5.3223185241e-02
 5.3437411785e-02
 5.3652197123e-02
 5.3867548704e-02
 5.4083459079e-02
 5.4299939424e-02
 5.4516982287e-02
 5.4734591395e-02
 5.4952774197e-02
 5.5171523243e-02
 5.5390849710e-02
 5.5610746145e-02
 5.5831216276e-02
 5.6052267551e-02
 5.6273896247e-02
 5.6496102363e-02
 5.6718889624e-02
 5.6942261755e-02
 5.7166215032e-02
 5.7390756905e-02
 5.7615887374e-02
 5.7841602713e-02
 5.8067910373e-02
 5.8294810355e-02
 5.8522302657e-02
 5.8750391006e-02
 5.8979075402e-02
 5.9208359569e-02
 5.9438243508e-02
 5.9668727219e-02
 5.9899814427e-02
 6.0131505132e-02
 6.0363803059e-02
 6.0596708208e-02
 6.0830224305e-02
 6.1064347625e-02
 6.1299085617e-02
 6.1534438282e-02
 6.1770405620e-02
 6.2006987631e-02
 6.2244191766e-02
 6.2482014298e-02
 6.2720462680e-02
 6.2959529459e-02
 6.3199229538e-02
 6.3439548016e-02
 6.3680499792e-02
 6.3922077417e-02
 6.4164295793e-02
 6.4407140017e-02
 6.4650617540e-02
 6.4894735813e-02
 6.5139494836e-02
 6.5384894609e-02
 6.5630935133e-02
 6.5877616405e-02
 6.6124945879e-02
 6.6372916102e-02
 6.6621541977e-02
 6.6870816052e-02
 6.7120738328e-02
 6.7371316254e-02
 6.7622557282e-02
 6.7874446511e-02
 6.8126998842e-02
 6.8380206823e-02
 6.8634085357e-02
 6.8888619542e-02
 6.9143824279e-02
 6.9399699569e-02
 6.9656237960e-02
 6.9913446903e-02
 7.0171333849e-02
 7.0429891348e-02
 7.0689126849e-02
 7.0949040353e-02
 7.1209639311e-02
 7.1470908821e-02
 7.1732871234e-02
 7.1995511651e-02
 7.2258844972e-02
 7.2522863746e-02
 7.2787575424e-02
 7.3052972555e-02
 7.3319070041e-02
 7.3585867882e-02
 7.3853358626e-02
 7.4121549726e-02
 7.4390441179e-02
 7.4660032988e-02
 7.4930332601e-02
 7.5201340020e-02
 7.5473055243e-02
 7.5745485723e-02
 7.6018624008e-02
 7.6292477548e-02
 7.6567046344e-02
 7.6842337847e-02
 7.7118344605e-02
 7.7395074069e-02
 7.7672533691e-02
 7.7950708568e-02
 7.8229621053e-02
 7.8509256244e-02
 7.8789629042e-02
 7.9070731997e-02
 7.9352565110e-02
 7.9635143280e-02
 7.9918451607e-02
 8.0202512443e-02
 8.0487310886e-02
 8.0772854388e-02
 8.1059142947e-02
 8.1346176565e-02
 8.1633970141e-02
 8.1922508776e-02
 8.2211807370e-02
 8.2501865923e-02
 8.2792676985e-02
 8.3084248006e-02
 8.3376586437e-02
 8.3669684827e-02
 8.3963550627e-02
 8.4258191288e-02
 8.4553599358e-02
 8.4849774837e-02
 8.5146732628e-02
 8.5444457829e-02
 8.5742972791e-02
 8.6042262614e-02
 8.6342334747e-02
 8.6643189192e-02
 8.6944840848e-02
 8.7247274816e-02
 8.7550498545e-02
 8.7854512036e-02
 8.8159330189e-02
 8.8464938104e-02
 8.8771350682e-02
 8.9078560472e-02
 8.9386574924e-02
 8.9695401490e-02
 9.0005025268e-02
 9.0315468609e-02
 9.0626716614e-02
 9.0938784182e-02
 9.1251663864e-02
 9.1565363109e-02
 9.1879881918e-02
 9.2195227742e-02
 9.2511393130e-02
 9.2828392982e-02
 9.3146212399e-02
 9.3464873731e-02
 9.3784362078e-02
 9.4104684889e-02
 9.4425849617e-02
 9.4747848809e-02
 9.5070697367e-02
 9.5394380391e-02
 9.5718920231e-02
 9.6044301987e-02
 9.6370540559e-02
 9.6697628498e-02
 9.7025573254e-02
 9.7354374826e-02
 9.7684040666e-02
 9.8014563322e-02
 9.8345957696e-02
 9.8678216338e-02
 9.9011339247e-02
 9.9345333874e-02
 9.9680207670e-02
 1.0001595318e-01
 1.0035257787e-01
 1.0069008172e-01
 1.0102847219e-01
 1.0136774182e-01
 1.0170790553e-01
 1.0204895586e-01
 1.0239090025e-01
 1.0273373872e-01
 1.0307747126e-01
 1.0342210531e-01
 1.0376764089e-01
 1.0411407799e-01
 1.0446142405e-01
 1.0480967164e-01
 1.0515883565e-01
 1.0550891608e-01
 1.0585990548e-01
 1.0621181875e-01
 1.0656464845e-01
 1.0691840202e-01
 1.0727308691e-01
 1.0762869567e-01
 1.0798522830e-01
 1.0834269971e-01
 1.0870110989e-01
 1.0906045139e-01
 1.0942073166e-01
 1.0978195816e-01
 1.1014413089e-01
 1.1050724983e-01
 1.1087131500e-01
 1.1123633385e-01
 1.1160230637e-01
 1.1196924001e-01
 1.1233713478e-01
 1.1270598322e-01
 1.1307580769e-01
 1.1344659328e-01
 1.1381834745e-01
 1.1419107765e-01
 1.1456477642e-01
 1.1493945867e-01
 1.1531511694e-01
 1.1569176614e-01
 1.1606939137e-01
 1.1644800752e-01
 1.1682761461e-01
 1.1720821261e-01
 1.1758980900e-01
 1.1797240376e-01
 1.1835599691e-01
 1.1874059588e-01
 1.1912620068e-01
 1.1951281130e-01
 1.1990043521e-01
 1.2028907239e-01
 1.2067873031e-01
 1.2106940150e-01
 1.2146109343e-01
 1.2185381353e-01
 1.2224756181e-01
 1.2264233828e-01
 1.2303815037e-01
 1.2343499810e-01
 1.2383288145e-01
 1.2423180044e-01
 1.2463176996e-01
 1.2503278255e-01
 1.2543484569e-01
 1.2583795190e-01
 1.2624213099e-01
 1.2664735317e-01
 1.2705363333e-01
 1.2746098638e-01
 1.2786939740e-01
 1.2827888131e-01
 1.2868943810e-01
 1.2910106778e-01
 1.2951377034e-01
 1.2992754579e-01
 1.3034242392e-01
 1.3075837493e-01
 1.3117541373e-01
 1.3159354031e-01
 1.3201275468e-01
 1.3243308663e-01
 1.3285450637e-01
 1.3327702880e-01
 1.3370065391e-01
 1.3412538171e-01
 1.3455122709e-01
 1.3497819006e-01
 1.3540627062e-01
 1.3583546877e-01
 1.3626578450e-01
 1.3669723272e-01
 1.3712979853e-01
 1.3756351173e-01
 1.3799834251e-01
 1.3843432069e-01
 1.3887144625e-01
 1.3930970430e-01
 1.3974910975e-01
 1.4018966258e-01
 1.4063137770e-01
 1.4107424021e-01
 1.4151826501e-01
 1.4196345210e-01
 1.4240980148e-01
 1.4285731316e-01
 1.4330600202e-01
 1.4375585318e-01
 1.4420689642e-01
 1.4465911686e-01
 1.4511251450e-01
 1.4556710422e-01
 1.4602287114e-01
 1.4647984505e-01
 1.4693801105e-01
 1.4739736915e-01
 1.4785793424e-01
 1.4831969142e-01
 1.4878267050e-01
 1.4924685657e-01
 1.4971224964e-01
 1.5017887950e-01
 1.5064671636e-01
 1.5111577511e-01
 1.5158605576e-01
 1.5205758810e-01
 1.5253032744e-01
 1.5300431848e-01
 1.5347954631e-01
 1.5395602584e-01
 1.5443374217e-01
 1.5491271019e-01
 1.5539292991e-01
 1.5587440133e-01
 1.5635713935e-01
 1.5684114397e-01
 1.5732640028e-01
 1.5781293809e-01
 1.5830074251e-01
 1.5878982842e-01
 1.5928019583e-01
 1.5977182984e-01
 1.6026476026e-01
 1.6075898707e-01
 1.6125449538e-01
 1.6175131500e-01
 1.6224941611e-01
 1.6274882853e-01
 1.6324955225e-01
 1.6375157237e-01
 1.6425491869e-01
 1.6475957632e-01
 1.6526554525e-01
 1.6577285528e-01
 1.6628147662e-01
 1.6679143906e-01
 1.6730272770e-01
 1.6781535745e-01
 1.6832932830e-01
 1.6884464025e-01
 1.6936130822e-01
 1.6987931728e-01
 1.7039869726e-01
 1.7091941833e-01
 1.7144151032e-01
 1.7196495831e-01
 1.7248979211e-01
 1.7301598191e-01
 1.7354355752e-01
 1.7407251894e-01
 1.7460285127e-01
 1.7513458431e-01
 1.7566768825e-01
 1.7620220780e-01
 1.7673811316e-01
 1.7727541924e-01
 1.7781414092e-01
 1.7835426331e-01
 1.7889580131e-01
 1.7943875492e-01
 1.7998312414e-01
 1.8052892387e-01
 1.8107615411e-01
 1.8162481487e-01
 1.8217490613e-01
 1.8272642791e-01
 1.8327941000e-01
 1.8383382261e-01
 1.8438969553e-01
 1.8494702876e-01
 1.8550580740e-01
 1.8606604636e-01
 1.8662776053e-01
 1.8719093502e-01
 1.8775558472e-01
 1.8832172453e-01
 1.8888932467e-01
 1.8945842981e-01
 1.9002901018e-01
 1.9060108066e-01
 1.9117465615e-01
 1.9174972177e-01
 1.9232630730e-01
 1.9290438294e-01
 1.9348399341e-01
 1.9406509399e-01
 1.9464772940e-01
 1.9523188472e-01
 1.9581757486e-01
 1.9640478492e-01
 1.9699354470e-01
 1.9758383930e-01
 1.9817566872e-01
 1.9876906276e-01
 1.9936399162e-01
 1.9996048510e-01
 2.0055854321e-01
 2.0115816593e-01
 2.0175935328e-01
 2.0236210525e-01
 2.0296645164e-01
 2.0357236266e-01
 2.0417986810e-01
 2.0478895307e-01
 2.0539963245e-01
 2.0601192117e-01
 2.0662580431e-01
 2.0724129677e-01
 2.0785838366e-01
 2.0847709477e-01
 2.0909743011e-01
 2.0971938968e-01
 2.1034297347e-01
 2.1096818149e-01
 2.1159502864e-01
 2.1222351491e-01
 2.1285364032e-01
 2.1348541975e-01
 2.1411885321e-01
 2.1475394070e-01
 2.1539069712e-01
 2.1602910757e-01
 2.1666918695e-01
 2.1731095016e-01
 2.1795439720e-01
 2.1859951317e-01
 2.1924632788e-01
 2.1989482641e-01
 2.2054502368e-01
 2.2119691968e-01
 2.2185051441e-01
 2.2250583768e-01
 2.2316285968e-01
 2.2382161021e-01
 2.2448207438e-01
 2.2514426708e-01
 2.2580818832e-01
 2.2647385299e-01
 2.2714126110e-01
 2.2781041265e-01
 2.2848132253e-01
 2.2915397584e-01
 2.2982838750e-01
 2.3050457239e-01
 2.3118251562e-01
 2.3186224699e-01
 2.3254375160e-01
 2.3322702944e-01
 2.3391209543e-01
 2.3459896445e-01
 2.3528762162e-01
 2.3597808182e-01
 2.3667034507e-01
 2.3736442626e-01
 2.3806032538e-01
 2.3875802755e-01
 2.3945756257e-01
 2.4015893042e-01
 2.4086214602e-01
 2.4156717956e-01
 2.4227407575e-01
 2.4298280478e-01
 2.4369339645e-01
 2.4440583587e-01
 2.4512015283e-01
 2.4583633244e-01
 2.4655438960e-01
 2.4727430940e-01
 2.4799613655e-01
 2.4871982634e-01
 2.4944542348e-01
 2.5017291307e-01
 2.5090232491e-01
 2.5163361430e-01
 2.5236684084e-01
 2.5310197473e-01
 2.5383904576e-01
 2.5457802415e-01
 2.5531893969e-01
 2.5606179237e-01
 2.5680661201e-01
 2.5755333900e-01
 2.5830203295e-01
 2.5905269384e-01
 2.5980532169e-01
 2.6055991650e-01
 2.6131647825e-01
 2.6207503676e-01
 2.6283556223e-01
 2.6359808445e-01
 2.6436260343e-01
 2.6512911916e-01
 2.6589763165e-01
 2.6666817069e-01
 2.6744070649e-01
 2.6821526885e-01
 2.6899185777e-01
 2.6977047324e-01
 2.7055114508e-01
 2.7133384347e-01
 2.7211859822e-01
 2.7290537953e-01
 2.7369424701e-01
 2.7448517084e-01
 2.7527815104e-01
 2.7607321739e-01
 2.7687036991e-01
 2.7766960859e-01
 2.7847093344e-01
 2.7927434444e-01
 2.8007984161e-01
 2.8088748455e-01
 2.8169721365e-01
 2.8250905871e-01
 2.8332304955e-01
 2.8413915634e-01
 2.8495740891e-01
 2.8577777743e-01
 2.8660032153e-01
 2.8742501140e-01
 2.8825184703e-01
 2.8908082843e-01
 2.8991201520e-01
 2.9074534774e-01
 2.9158088565e-01
 2.9241859913e-01
 2.9325848818e-01
 2.9410058260e-01
 2.9494488239e-01
